X:77
T:While Shepards Wach. WHG.076
R:hymn
S:W.H.Giles MS,Bampton,Oxfordshire,1839p78
O:England
H:donated by Mrs W.R.Kettlewell to VWML,Apr 1927.
A:Bampton, Oxfordshire
Z:PJHeadford – VMP 2009
M:C|
L:1/4
Q:1/2=90
K:D
e2 de|e2 f2|(ed) (cB)|A4||\
A2 dc|(d>e f)e|d4||
d2 ed|(c>B A)d/c/|Bc d2|e4||\
e2 fe|d2cB|
A4|z4|\
f2 dc|Bc de|f2 e2|d4|]

